X: 35858
T: San Francisco, The
R: reel
M: 4/4
K: Dmajor
F3 G AF F2|dF F2 BFAG|F3 G AGFA|GFED CA,AG|
F3 G AF F2|Addc defa|g2 fg ecAF|GECD ED D2:|
dcdf a2 df|afdf eB B2|dcdf a2 bg|afeg fedf|
afdf afdf|g2 fg edBA|dcdf e2 dB|AFGE FD D2:|

